img/icons/Dancing.svg

<svg width="34" height="46" viewBox="0 0 34 46" fill="none" xmlns="http://www.w3.org/2000/svg">
<path d="M0.83 34H4.01C4.77 34 5.44 34.1467 6.02 34.44C6.60667 34.7267 7.06 35.1333 7.38 35.66C7.70667 36.1867 7.87 36.8 7.87 37.5C7.87 38.2 7.70667 38.8133 7.38 39.34C7.06 39.8667 6.60667 40.2767 6.02 40.57C5.44 40.8567 4.77 41 4.01 41H0.83V34ZM3.93 39.67C4.63 39.67 5.18667 39.4767 5.6 39.09C6.02 38.6967 6.23 38.1667 6.23 37.5C6.23 36.8333 6.02 36.3067 5.6 35.92C5.18667 35.5267 4.63 35.33 3.93 35.33H2.45V39.67H3.93ZM11.1517 35.54C11.9851 35.54 12.6251 35.74 13.0717 36.14C13.5184 36.5333 13.7417 37.13 13.7417 37.93V41H12.2817V40.33C11.9884 40.83 11.4417 41.08 10.6417 41.08C10.2284 41.08 9.86839 41.01 9.56172 40.87C9.26172 40.73 9.03172 40.5367 8.87172 40.29C8.71172 40.0433 8.63172 39.7633 8.63172 39.45C8.63172 38.95 8.81839 38.5567 9.19172 38.27C9.57172 37.9833 10.1551 37.84 10.9417 37.84H12.1817C12.1817 37.5 12.0784 37.24 11.8717 37.06C11.6651 36.8733 11.3551 36.78 10.9417 36.78C10.6551 36.78 10.3717 36.8267 10.0917 36.92C9.81839 37.0067 9.58505 37.1267 9.39172 37.28L8.83172 36.19C9.12505 35.9833 9.47505 35.8233 9.88172 35.71C10.2951 35.5967 10.7184 35.54 11.1517 35.54ZM11.0317 40.03C11.2984 40.03 11.5351 39.97 11.7417 39.85C11.9484 39.7233 12.0951 39.54 12.1817 39.3V38.75H11.1117C10.4717 38.75 10.1517 38.96 10.1517 39.38C10.1517 39.58 10.2284 39.74 10.3817 39.86C10.5417 39.9733 10.7584 40.03 11.0317 40.03ZM18.4236 35.54C19.0903 35.54 19.6269 35.74 20.0336 36.14C20.4469 36.54 20.6536 37.1333 20.6536 37.92V41H19.0936V38.16C19.0936 37.7333 19.0003 37.4167 18.8136 37.21C18.6269 36.9967 18.3569 36.89 18.0036 36.89C17.6103 36.89 17.2969 37.0133 17.0636 37.26C16.8303 37.5 16.7136 37.86 16.7136 38.34V41H15.1536V35.62H16.6436V36.25C16.8503 36.0233 17.1069 35.85 17.4136 35.73C17.7203 35.6033 18.0569 35.54 18.4236 35.54ZM24.7263 41.08C24.1529 41.08 23.6363 40.9633 23.1763 40.73C22.7229 40.49 22.3663 40.16 22.1063 39.74C21.8529 39.32 21.7263 38.8433 21.7263 38.31C21.7263 37.7767 21.8529 37.3 22.1063 36.88C22.3663 36.46 22.7229 36.1333 23.1763 35.9C23.6363 35.66 24.1529 35.54 24.7263 35.54C25.2929 35.54 25.7863 35.66 26.2063 35.9C26.6329 36.1333 26.9429 36.47 27.1363 36.91L25.9263 37.56C25.6463 37.0667 25.2429 36.82 24.7163 36.82C24.3096 36.82 23.9729 36.9533 23.7063 37.22C23.4396 37.4867 23.3063 37.85 23.3063 38.31C23.3063 38.77 23.4396 39.1333 23.7063 39.4C23.9729 39.6667 24.3096 39.8 24.7163 39.8C25.2496 39.8 25.6529 39.5533 25.9263 39.06L27.1363 39.72C26.9429 40.1467 26.6329 40.48 26.2063 40.72C25.7863 40.96 25.2929 41.08 24.7263 41.08ZM33.2361 38.33C33.2361 38.35 33.2261 38.49 33.2061 38.75H29.1361C29.2094 39.0833 29.3828 39.3467 29.6561 39.54C29.9294 39.7333 30.2694 39.83 30.6761 39.83C30.9561 39.83 31.2028 39.79 31.4161 39.71C31.6361 39.6233 31.8394 39.49 32.0261 39.31L32.8561 40.21C32.3494 40.79 31.6094 41.08 30.6361 41.08C30.0294 41.08 29.4928 40.9633 29.0261 40.73C28.5594 40.49 28.1994 40.16 27.9461 39.74C27.6928 39.32 27.5661 38.8433 27.5661 38.31C27.5661 37.7833 27.6894 37.31 27.9361 36.89C28.1894 36.4633 28.5328 36.1333 28.9661 35.9C29.4061 35.66 29.8961 35.54 30.4361 35.54C30.9628 35.54 31.4394 35.6533 31.8661 35.88C32.2928 36.1067 32.6261 36.4333 32.8661 36.86C33.1128 37.28 33.2361 37.77 33.2361 38.33ZM30.4461 36.72C30.0928 36.72 29.7961 36.82 29.5561 37.02C29.3161 37.22 29.1694 37.4933 29.1161 37.84H31.7661C31.7128 37.5 31.5661 37.23 31.3261 37.03C31.0861 36.8233 30.7928 36.72 30.4461 36.72Z" fill="#E5E5E5"/>
<path d="M27.5833 19.4831C26.931 18.7588 25.9392 18.6763 25.1272 19.2559C24.1677 19.9405 22.7637 20.8202 21.6066 21.3931C21.2273 20.2655 21.0631 18.7592 20.7575 17.542L20.7833 10.5806C20.7833 10.5806 25.0255 10.0816 26.2498 9.91617C27.5542 9.80783 27.7539 8.78574 27.4762 8.06807C27.4089 7.89357 25.7046 3.5473 25.4076 2.70739C25.1159 1.88329 24.3302 1.39382 23.3206 1.64647C22.3853 1.88042 22.1039 2.68438 22.3891 3.50943C22.7868 4.66335 23.8459 7.45204 23.8459 7.45204L20.1294 7.89884L14.1205 6.7478C12.5906 5.30096 11.6058 3.68777 11.2484 1.35403C11.1171 0.497338 10.5101 -0.102396 9.4123 0.0145788C8.44956 0.117171 7.88719 0.920171 8.01904 1.77639C8.55772 5.29856 10.3379 8.27805 13.0593 10.2594V17.1508C11.1914 21.4056 11.1693 25.7964 13.923 29.694C14.2814 30.2002 14.8928 30.4778 15.5175 30.4778C15.8609 30.4778 16.2074 30.3929 16.519 30.2199C17.3978 29.7256 17.6626 28.6915 17.1088 27.9072C15.5832 25.7489 14.8761 23.1295 15.6392 20.081C15.7619 19.5905 16.2602 19.2463 16.8242 19.2645H16.8258C17.3569 19.2813 17.8073 19.614 17.9252 20.0752C18.2605 21.3797 18.4262 22.6506 18.6797 23.444C19.1764 24.9953 20.913 25.27 22.0183 24.7523C24.2656 23.7 25.6691 22.9449 27.2884 21.8394C28.1144 21.2761 28.2328 20.2046 27.5833 19.4831Z" fill="#E5E5E5"/>
<path d="M17.6637 6.55675C19.2576 6.55675 20.5497 5.40566 20.5497 3.98571C20.5497 2.56577 19.2576 1.41467 17.6637 1.41467C16.0697 1.41467 14.7776 2.56577 14.7776 3.98571C14.7776 5.40566 16.0697 6.55675 17.6637 6.55675Z" fill="#E5E5E5"/>
</svg>

<svg width="34" height="46" fill="none" xmlns="http://www.w3.org/2000/svg"><path d="M.83 34h3.18c.76 0 1.43.147 2.01.44.587.287 1.04.693 1.36 1.22.327.527.49 1.14.49 1.84 0 .7-.163 1.313-.49 1.84a3.25 3.25 0 01-1.36 1.23c-.58.287-1.25.43-2.01.43H.83v-7zm3.1 5.67c.7 0 1.257-.193 1.67-.58.42-.393.63-.923.63-1.59s-.21-1.193-.63-1.58c-.413-.393-.97-.59-1.67-.59H2.45v4.34h1.48zm7.222-4.13c.833 0 1.473.2 1.92.6.446.393.67.99.67 1.79V41h-1.46v-.67c-.294.5-.84.75-1.64.75a2.58 2.58 0 01-1.08-.21c-.3-.14-.53-.333-.69-.58a1.51 1.51 0 01-.24-.84c0-.5.186-.893.56-1.18.38-.287.963-.43 1.75-.43h1.24c0-.34-.104-.6-.31-.78-.207-.187-.517-.28-.93-.28-.287 0-.57.047-.85.14a2.17 2.17 0 00-.7.36l-.56-1.09a3.383 3.383 0 011.05-.48 4.79 4.79 0 011.27-.17zm-.12 4.49c.266 0 .503-.06.71-.18.206-.127.353-.31.44-.55v-.55h-1.07c-.64 0-.96.21-.96.63 0 .2.076.36.23.48.16.113.376.17.65.17zm7.392-4.49c.666 0 1.203.2 1.61.6.413.4.62.993.62 1.78V41h-1.56v-2.84c0-.427-.094-.743-.28-.95-.187-.213-.457-.32-.81-.32-.394 0-.707.123-.94.37-.234.24-.35.6-.35 1.08V41h-1.56v-5.38h1.49v.63c.206-.227.463-.4.77-.52a2.62 2.62 0 011.01-.19zm6.302 5.54c-.573 0-1.09-.117-1.55-.35a2.74 2.74 0 01-1.07-.99 2.713 2.713 0 01-.38-1.43c0-.533.127-1.01.38-1.43.26-.42.617-.747 1.07-.98a3.3 3.3 0 011.55-.36c.567 0 1.06.12 1.48.36.427.233.737.57.93 1.01l-1.21.65c-.28-.493-.683-.74-1.21-.74-.406 0-.743.133-1.01.4-.266.267-.4.63-.4 1.09 0 .46.134.823.4 1.09.267.267.604.4 1.01.4.534 0 .937-.247 1.21-.74l1.21.66c-.193.427-.503.76-.93 1-.42.24-.913.36-1.48.36zm8.51-2.75c0 .02-.01.16-.03.42h-4.07c.073.333.247.597.52.79.273.193.613.29 1.02.29.28 0 .527-.04.74-.12.22-.087.423-.22.61-.4l.83.9c-.507.58-1.247.87-2.22.87-.607 0-1.143-.117-1.61-.35a2.635 2.635 0 01-1.08-.99 2.714 2.714 0 01-.38-1.43c0-.527.123-1 .37-1.42a2.625 2.625 0 011.03-.99c.44-.24.93-.36 1.47-.36a3 3 0 011.43.34c.427.227.76.553 1 .98.247.42.37.91.37 1.47zm-2.79-1.61c-.353 0-.65.1-.89.3-.24.2-.387.473-.44.82h2.65a1.27 1.27 0 00-.44-.81 1.302 1.302 0 00-.88-.31zm-2.863-17.237c-.652-.724-1.644-.807-2.456-.227-.96.684-2.363 1.564-3.52 2.137-.38-1.128-.544-2.634-.85-3.851l.026-6.961s4.242-.5 5.467-.665c1.304-.108 1.504-1.13 1.226-1.848-.067-.174-1.771-4.52-2.068-5.36-.292-.825-1.078-1.314-2.087-1.062-.936.234-1.217 1.038-.932 1.863.398 1.154 1.457 3.943 1.457 3.943l-3.717.447-6.009-1.151c-1.53-1.447-2.514-3.06-2.872-5.394-.13-.857-.738-1.456-1.836-1.34C8.45.118 7.887.92 8.02 1.777c.539 3.523 2.319 6.502 5.04 8.483v6.892c-1.868 4.255-1.89 8.645.864 12.543.358.506.97.784 1.595.784.343 0 .69-.085 1.001-.258.879-.494 1.144-1.528.59-2.313-1.526-2.158-2.233-4.777-1.47-7.826.123-.49.621-.835 1.185-.816h.002c.53.016.981.349 1.1.81.335 1.305.5 2.576.754 3.369.496 1.551 2.233 1.826 3.338 1.308 2.248-1.052 3.651-1.807 5.27-2.913.826-.563.945-1.634.295-2.356z" fill="#E5E5E5"/><path d="M17.664 6.557c1.594 0 2.886-1.151 2.886-2.571 0-1.42-1.292-2.571-2.886-2.571s-2.886 1.15-2.886 2.57 1.292 2.572 2.886 2.572z" fill="#E5E5E5"/></svg>
